X:108
T:Leitrim Jig, The  
B:CRE1.012 (Port Liadroma)
F:file ID: cre.1/108leit_J
S:Michael Brophy
N:Note no repeats in CRE...?
M:6/8
Q:160
R:jig
K:G
d|dcA GFG|AGF G2d|dcA GFG|Ade f2e|
dcA GFG|AGF G2D|GBd gfg|ded cAG:|
def gfg|agf g2f|def gfg|ded cAG|
def gfg|agf g2a|bag agf|ded cAG:|

%%%

